!!!COM: Gonzaga, Francisca
!!!CDT: 1847/10/17-1935/02/28
!!!OTL: O jagunço
**kern	**kern	**dynam
*part1	*part1	*part1
*staff2	*staff1	*
*I"Piano	*	*
*clefF4	*clefG2	*
*k[b-]	*k[b-]	*
*M2/4	*M2/4	*
=1	=1	=1
*F:	*F:	*
!	!LO:TX:a:i:t=tranquilo	!
!	!LO:TX:a:B:t=Allegretto	!
8.FFL 8.C	8r	p
.	8A^ 8f	.
16FFJk 16C	.	.
8.FFL 8.C	8r	.
.	8E^ 8B- 8c	.
16FFJk 16C	.	.
=	=	=
8.FFL 8.C	8r	.
.	8A^ 8f	.
16FFJk 16C	.	.
8.FFL 8.C	8r	.
.	8E^ 8B- 8c	.
16FFJk 16C	.	.
=	=	=
8.FFL 8.C	8r	.
.	8A^ 8f	.
16FFJk 16C	.	.
8.FFL 8.C	8r	.
.	8E^ 8B- 8c	.
16FFJk 16C	.	.
=	=	=
8FF 8C	8A 8c 8f	.
8r	8r	.
4r	8ff;L	f
.	16eeL	.
.	16ddJJ	.
=||	=||	=||
16EKL 16B-	16ccKL	.
8B- 8c 8e	8g	.
16B-Jk 16c 16e	16aJk	.
.	(8qcc/	.
8CL	16b-LL)	.
.	16a	.
8B-J 8c 8e	16b-	.
.	16gJJ	.
=	=	=
16AKL 16c	8.aL 8.cc	.
8A 8c 8f	.	.
16AJk 16c 16f	16aJk 16cc	.
8CL	16r	.
.	(16aaLL	.
8AJ 8c 8f	16gg	.
.	16ffJJ)	.
!!linebreak:original
=	=	=
16EKL 16c	8.b-^L 8.ee 8.bb-	.
8B- 8c 8e	.	.
16B-Jk 16c 16e	16b-Jk 16ee 16bb-	.
8CL	16r	.
.	(16bb-LL	.
8B-J 8c 8e	16aa	.
.	16ggJJ)	.
=	=	=
.	(8qff/	.
16FKL 16c	(16ddd^LL)	.
8A 8c 8f	16ccc	.
.	16aa	.
16AJk 16c 16f	16ffJJ)	.
8CL	16cc^LL	.
.	16ff	.
8AJ 8c 8f	16ee	.
.	16ddJJ	.
=	=	=
16EKL 16B-	16ccKL	.
8B- 8c 8e	8g	.
16B-Jk 16c 16e	16aJk	.
.	(8qcc/	.
8CL	(16b-^LL)	.
.	16a	.
8B-J 8c 8e	16b-	.
.	16gJJ)	.
=	=	=
16FKL 16c	8.aL 8.cc	.
8A 8c 8f	.	.
16AJk 16c 16f	16aJk 16cc	.
8CL	16r	.
.	(16ffLL	.
8AJ 8c 8f	16gg	.
.	16aaJJ)	.
=	=	=
16GGKL	16eeLL 16gg	.
8G 8c 8e	16ccc	.
.	16ddd	.
16GJk 16c 16e	16eeeJJ	.
8DL	16ffLL 16bbn 16fff	.
.	16eee	.
8GJ 8Bn 8f	16fff	.
.	16dddJJ	.
!!linebreak:original
=	=	=
!	!LO:TX:a:t=rall.	!
16EKL 16c	16bb-^:LL 16ggg:	.
8B- 8c 8e	16eee	.
.	16ccc	.
16B-Jk 16c 16e	16bbnJJ	.
16r	8bb-X	.
16c;LL 16f	.	.
16e	8r	.
16dJJ	.	.
=	=	=
!	!LO:TX:a:B:t=a tempo	!
16cKL	16r	.
8B- 8c 8e	8gL	.
16B-Jk 16c 16e	16aJk	.
.	(8qcc/	.
8CL	(16b-LL)	.
.	16a	.
8B-J 8c 8e	16b-	.
.	16gJJ)	.
=	=	=
16AKL 16c	8.aL 8.cc	.
8A 8c 8f	.	.
16AJk 16c 16f	16aJk 16cc	.
8CL	16r	.
.	(16aaLL	.
8AJ 8c 8f	16gg	.
.	16ffJJ)	.
=	=	=
16EKL 16c	8.b-^L 8.ee 8.bb-	.
8B- 8c 8e	.	.
16B-Jk 16c 16e	16b-Jk 16ee 16bb-	.
8CL	16r	.
.	(16bb-LL	.
8B-J 8c 8e	16aa	.
.	16ggJJ)	.
=	=	=
.	(8qff/	.
16FKL 16c	(16ddd^LL)	.
8A 8c 8f	16ccc	.
.	16aa	.
16AJk 16c 16f	16ffJJ)	.
8CL	(16cc^LL	.
.	16ff	.
8AJ 8c 8f	16gg	.
.	16aaJJ)	.
!!linebreak:original
=	=	=
16AKL	8.fffL	f
8c 8f 8a	.	.
16cJk 16f 16a	16ffJk 16fff	.
8AL	16r	.
.	(16ffLL	.
8cJ 8f 8a	16gg	.
.	16aaJJ)	.
=	=	=
16B-KL	8.fffL	.
8d 8g	.	.
16dJk 16g	16ffJk 16fff	.
8BnL	16r	.
.	16fffLL	.
8dJ 8f 8g#X	16eee	.
.	16dddJJ	.
=	=	=
16CKL	16fffLL	.
8A 8c 8f	16aa	.
.	16eee	.
16AJk 16c 16f	16dddJJ	.
8CCL	16cccLL	.
.	16ee	.
8B-J 8c 8e	16aa	.
.	16ggJJ	.
=	=	=
8.FFL 8.C	8ffL	.
.	8AJ 8f	p
16FFJk	.	.
8.C^L	8r	.
.	8B- 8e 8a	.
16FFJk	.	.
=	=	=
8.C^L	8r	.
.	8A 8f	.
16FFJk	.	.
8.C^L	8r	.
.	8E 8B- 8c	.
16FFJk	.	.
=	=	=
8.C^L	8r	.
.	8A 8f	.
16FFJk	.	.
8.C^L	8r	.
.	8B- 8e 8a	.
16FFJk	.	.
!!linebreak:original
=	=	=
8.C^L	8r	.
.	8A 8f	.
16FFJk	.	.
8.C^L	8r	.
.	8E 8B- 8c	.
16FFJk	.	.
=	=	=
8FF 8C	8A 8c 8f	.
8r	8r	.
8FF 8C	8A 8c 8f	.
8r	8r	.
=||	=||	=||
*C:	*C:	*
*k[]	*k[]	*
!	!LO:TX:a:t=Fine	!
16GGKL	8.f^L 8.b 8.ff	.
8F 8G 8B	.	.
16FJk 16G 16B	16fJk 16b 16ff	.
8DL	16r	.
.	(16ffLL	.
8FJ 8G 8B	16ee	.
.	16ddJJ)	.
=	=	=
16CKL	8.g^L 8.cc 8.ee 8.gg	.
8E 8G 8c	.	.
16EJk 16G 16c	16gJk 16cc 16ee 16gg	.
8GGL	16r	.
.	(16ccLL	.
8EJ 8G 8c	16ee	.
.	16ggJJ)	.
=	=	=
16DKL	8ccL 8ff#X 8aa	.
8F#X 8c 8d	.	.
.	8ccJ 8ff# 8aa	.
16F#Jk 16c 16d	.	.
8DL	8ccL 8ff# 8bb	.
8F#J 8c 8d	8ccJ 8ff# 8bb	.
=	=	=
16GGKL	8.b^L 8.ff 8.gg	.
8G 8B 8f	.	.
16GJk 16B 16f	16bJk 16ff 16gg	.
8DL	16r	.
.	8ggL	.
8GJ 8B 8f	.	.
.	16fffJk	.
!!pagebreak:original
=	=	=
16FKL	4eee	.
8G 8B 8d	.	.
16GJk 16B 16d	.	.
8FL	16r	.
.	(16dddLL	.
8GJ 8B 8d	16bb	.
.	16aaJJ)	.
=	=	=
16EKL	(16ggLL	.
8G 8c 8e	16ee	.
.	16ccc	.
16GJk 16c 16e	16aaJJ)	.
8EL	8.ggL	.
8GJ 8c 8e	.	.
.	16eeJk	.
=	=	=
16EEKL	8.cccL	.
8G#X 8d 8e	.	.
16G#Jk 16d 16e	16bbJk	.
8G#L	8.eeL	.
8dJ 8e	.	.
.	16eeJk	.
=	=	=
16AKL	(16bbLL	.
8c 8e	16aa	.
.	16eee	.
16cJk 16e	16cccJJ)	.
8EL	8.aaL	.
8AJ 8c 8e	.	.
.	16aaJk	.
=	=	=
16FKL	8cccL	.
8A 8d 8f	.	.
.	8cccJ	.
16AJk 16d 16f	.	.
16F#XKL	8bbL	.
8A 8c 8e-X	.	.
.	8aaJ	.
16AJk 16c 16e-	.	.
=	=	=
16GKL	8.eeL	.
8c 8e 8g	.	.
16cJk 16e 16g	16eeJk 16gg	.
8EL	16r	.
.	(16ff#XLL	.
8GJ 8c 8e	16gg	.
.	16bbJJ)	.
!!linebreak:original
=	=	=
16DKL	(16aaLL	.
8G 8B 8f	16b	.
.	16ff	.
16GJk 16B 16f	16aaJJ)	.
8FL	(16ggLL	.
.	16g	.
8GJ 8B 8d	16b	.
.	16ffJJ)	.
=	=	=
8EL	(16gLL 16ee	.
.	16cc	.
8GJ 8c 8e	16a	.
.	16gJJ	.
(16eLL	4g)	.
16c	.	.
16A	.	.
16GJJ)	.	.
=	=	=
16FKL	8.f^L 8.b 8.ff	.
8G 8B 8d	.	.
16GJk 16B 16d	16fJk 16b 16ff	.
8FL	16r	.
.	(16ffLL	.
8GJ 8B 8d	16ee	.
.	16ddJJ)	.
=	=	=
16EKL	8.g^L 8.cc 8.ee 8.gg	.
8G 8c	.	.
16GJk 16c	16gJk 16cc 16ee 16gg	.
8GGL	16r	.
.	(16ccLL	.
8EJ 8G 8c	16ee	.
.	16ggJJ)	.
=	=	=
16DKL	8ccL 8ff#X 8aa	.
8F#X 8c 8d	.	.
.	8ccJ 8ff# 8aa	.
16F#Jk 16c 16d	.	.
8DL	8ff#^L 8eee	.
8F#J 8c 8d	8ff#^J 8ddd	.
=	=	=
16GGKL	4ff^ 4bb	.
8G 8B 8f	.	.
16GJk 16B 16f	.	.
8DL	8.ffL 8.bb	.
8GJ 8B 8f	.	.
.	16ggJk	.
!!linebreak:original
=	=	=
16DKL	8fffL	.
8G 8B 8f	.	.
.	8fffJ	.
16GJk 16B 16f	.	.
8EL	8.eeeL	.
8G#XJ 8d 8e	.	.
.	16bbJk	.
=	=	=
16AAKL	8.dddL	.
8A 8c 8e	.	.
16AJk 16c 16e	16cccJk	.
8FL	16r	.
.	(16cccLL	.
8AJ 8d 8f	16bb	.
.	16aaJJ)	.
=	=	=
16GKL	(8ggL	.
8c 8e 8g	.	.
.	8eeJ) 8ccc	.
16cJk 16e 16g	.	.
8GL	(8ddL	.
8BJ 8f	8bJ) 8gg	.
=	=	=
8cL	8eL 8cc	.
8GJ	8gJ 8b 8dd 8gg	.
4CC 4C	4cc 4ee 4gg 4ccc	.
==	==	==
*-	*-	*-
!!!system-decoration: {(s1,s2)}
!!!AGN: Tango
!!!EED: Florian Moldaschl
!!!END: 2025/12/23
!!!ENC: Florian Moldaschl
!!!EEV: 2025/12/23
!!!title: @{OPR}, @{SCT} №@{ONM}